!!!!SEGMENT: pl-sa--79-a-ii-19--001-002_siwinski-andrzej--missa-pro-defunctis-kyrie.krn
!!!cenid: 17xx:294
!!!COM: Siwiński, Andrzej
!!!COM-rismID: pe41011487
!!!CDT: <1725->1725
!!!CNT:
!!!OPR: Missa pro defunctis
!!!OTL: Kyrie
!!!OMV: 002
!!!PDT: 1726
!!!AGN: Sacred; Mass
!!!YEC: Copyright 2022 Narodowy Instytut Fryderyka Chopina (https://polishscores.org)
!!!YEM: License CC-BY-4.0 (https://creativecommons.org/licenses/by/4.0)
!!!SMS-siglum: PL-SA
!!!SMS-shelfmark: 79/A II 19
!!!SMS-shelfwork: 001-002 M
!!!NIFC-rismSourceID: 1001070177
!!!NIFC-rismChildID: 1001070177
!!!NIFC-islandoraID: none
!!!URL-pdf-islandora:
!!!URL-scan: https://bc.bdsandomierz.pl/dlibra/publication/1356/edition/1324/content @EN{Scan in the Sandomierz Diocese Digital Library} @PL{Skany w portalu Cyfrowa Biblioteka Diecezjalna w Sandomierzu}
!!!IIIF:
!!!ONB-nifc: Uwaga: części Mszy: Requiem, Kyrie, Dies Irae, Quantus tremor, Tuba mirrum, Mors, Quid sum miser, Rex tremende, Quaerens me, Iuste iudex, Oro supplex, Pie Iesu Domine, Domine Iesu Christe,Quam olim Abrahae, Hostias, Sanctus, Osanna, Benedictus, Agnus Dei
!!!AIN: 1 alto 1 bass 2 oboe 1 organ 1 soprn 1 tenor 2 violn
!!!key: c
**kern	**fba	**kern	**kern	**kern	**text	**mod-text	**kern	**text	**mod-text	**kern	**text	**mod-text	**kern	**text	**mod-text	**kern	**kern
*part9	*part9	*part8	*part7	*part6	*part6	*part6	*part5	*part5	*part5	*part4	*part4	*part4	*part3	*part3	*part3	*part2	*part1
*staff9	*	*staff8	*staff7	*staff6	*staff6	*staff6	*staff5	*staff5	*staff5	*staff4	*staff4	*staff4	*staff3	*staff3	*staff3	*staff2	*staff1
*I"Baſso pro Organo	*	*I"Violino. 2do	*I"Violino 1mo	*I"Baſso vocali	*	*	*I"Tenore	*	*	*I"Alto.	*	*	*I"Canto.	*	*	*I"Hobois 2do.	*I"Hautbo. 1mo.
*mI"Basso e Organo	*	*mI"Violino II	*mI"Violino I	*mI"Basso	*	*	*	*	*	*mI"Alto	*	*	*mI"Soprano	*	*	*mI"Oboe II	*mI"Oboe I
*I'org	*	*I'vl 2	*I'vl 1	*I'B	*	*	*I'T	*	*	*I'A	*	*	*I'S	*	*	*I'ob 2	*I'ob 1
*Iorgan	*	*Ivioln	*Ivioln	*Ibass	*	*	*Itenor	*	*	*Ialto	*	*	*Isoprn	*	*	*Ioboe	*Ioboe
*ICklav	*	*ICstr	*ICstr	*ICvox	*	*	*ICvox	*	*	*ICvox	*	*	*ICvox	*	*	*ICww	*ICww
*IGcont	*	*	*	*IGcoro	*	*	*IGcoro	*	*	*IGcoro	*	*	*IGcoro	*	*	*	*
*clefF4	*	*clefG2	*clefG2	*clefF4	*	*	*clefC4	*	*	*clefC3	*	*	*clefC1	*	*	*clefG2	*clefG2
*	*	*	*	*	*	*	*mclefGv2	*	*	*mclefG2	*	*	*mclefG2	*	*	*	*
*k[b-e-]	*	*k[b-e-]	*k[b-e-]	*k[b-e-]	*	*	*k[b-e-]	*	*	*k[b-e-]	*	*	*k[b-e-]	*	*	*k[b-e-]	*k[b-e-]
*mk[b-e-a-]	*	*mk[b-e-a-]	*mk[b-e-a-]	*mk[b-e-a-]	*	*	*mk[b-e-a-]	*	*	*mk[b-e-a-]	*	*	*mk[b-e-a-]	*	*	*mk[b-e-a-]	*mk[b-e-a-]
*c:	*	*c:	*c:	*c:	*	*	*c:	*	*	*c:	*	*	*c:	*	*	*c:	*c:
*M6/8	*	*M6/8	*M6/8	*M6/8	*	*	*M6/8	*	*	*M6/8	*	*	*M6/8	*	*	*M6/8	*M6/8
=1	=1	=1	=1	=1	=1	=1	=1	=1	=1	=1	=1	=1	=1	=1	=1	=1	=1
!LO:TX:b:i:mod= :t=Tutti	!	!LO:TX:t=P:problem=mixed beam	!	!	!	!	!	!	!	!	!	!	!LO:TX:t=P:problem=przy kluczu b- ee-	!	!	!	!
8.C/L	.	8e-/L	8cc\L	8.C/	Ky-	Ky-	8.e-\	Kÿ-	Ky-	8.g\	Kÿ-	Ky-	8.ee-\	Kÿ-	Ky-	4e-/	8cc\L
.	.	8ee-\	8.gg\	.	.	.	.	.	.	.	.	.	.	.	.	.	8ee-\
16D/L	.	.	.	16D/	-ri-	-ri-	16d\	-ri-	-ri-	16g\	-ri-	-ri-	16ee-\	-ri-	-ri-	.	.
16E-/	.	8cc\J	.	(16E-\LL	-e	-e	8c\	-e	-e	8g\	-e	-e	8ee-\	-e	-e	16g/LL	8cc\J
!	!	!	!LO:TX:t=P:problem=♭ above	!	!	!	!	!	!	!	!	!	!	!	!	!	!
16F/JJ	.	.	16aa-X\Jk	16F\JJ)	.	.	.	.	.	.	.	.	.	.	.	16a-X/JJ	.
*	*	*	*	*	*ij	*ij	*	*ij	*ij	*	*ij	*ij	*	*ij	*ij	*	*
4G\	.	8bn\L	8.dd\L	8.G\	Ky-	Ky-	8.Bn\	Kÿ-	Ky-	8.g\	Kÿ-	Ky-	8.dd\	Kÿ-	Ky-	8bn\L	8dd\L
.	.	8b\	.	.	.	.	.	.	.	.	.	.	.	.	.	8dd\	8bn\
.	.	.	16dd\K	16G\	-ri-	-ri-	16B\	-ri-	-ri-	16d\	-ri-	-ri-	16dd\	-ri-	-ri-	.	.
8G\	.	8b\J	8dd\J	8G\	-e	-e	8B\	-e	-e	8d\	-e	-e	8dd\	-e	-e	8b\J	8dd\J
*	*	*	*	*	*Xij	*Xij	*	*Xij	*Xij	*	*Xij	*Xij	*	*Xij	*Xij	*	*
!	!	!	!	!	!	!	!	!	!	!	!	!	!	!	!	!	!LO:LB:g=original
=2	=2	=2	=2	=2	=2	=2	=2	=2	=2	=2	=2	=2	=2	=2	=2	=2	=2
8c\L	6	8cc\	8ee-\	8c\	e-	e-	8c\	e-	e-	8e-\	e-	e-	8ee-\	e-	e-	8cc\	8ee-\
8B-\	6	4cc\	4ff\	(8B-\L	-ley-	-lei-	4c\	-ley-	-lei-	4f\	-lej-	-lei-	(8dd\L	-lej-	-lei-	4cc\	4ff\
.	7	.	.	.	.	.	.	.	.	.	.	.	.	.	.	.	.
8A-X\J	6	.	.	8A-X\J)	.	.	.	.	.	.	.	.	8cc\J)	.	.	.	.
4G\	.	8bn\L	8gg\L	4G\	-ſon	-ſon	4d\	-son	-son	4g\	-ſon	-ſon	4bn\	-ſon	-ſon	8bn\L	8gg\L
.	.	8dd\	16gg\L	.	.	.	.	.	.	.	.	.	.	.	.	8dd\	16gg\L
!	!	!	!LO:TX:t=P:problem=♭ above	!	!	!	!	!	!	!	!	!	!	!	!	!	!LO:TX:t=P:problem=♭ above
.	.	.	16aa-X\	.	.	.	.	.	.	.	.	.	.	.	.	.	16aa-X\
8r	.	8dd\J	16gg\	8r	.	.	8r	.	.	8r	.	.	8r	.	.	8dd\J	16gg\
.	.	.	16ff\JJ	.	.	.	.	.	.	.	.	.	.	.	.	.	16ff\JJ
!LO:LB:g=original	!	!	!	!LO:LB:g=original	!	!	!	!	!	!	!	!	!	!	!	!	!
=3	=3	=3	=3	=3	=3	=3	=3	=3	=3	=3	=3	=3	=3	=3	=3	=3	=3
!	!	!	!	!	!	!	!	!	!	!LO:SIC:s=(4g	!	!	!	!	!	!LO:SIC:s=4.ccM	!
8c\L	.	4.ccM\	4ee-\	8c\L	e-	e-	4.cM\	e-	e-	4g\	e-	e-	4.ee-M\	e-	e-	4.cc\	4.ee-M\
8G\	6	.	.	8G\	.	.	.	.	.	.	.	.	.	.	.	.	.
!	!	!	!LO:TX:t=P:problem=♭ above	!	!	!	!	!	!	!LO:SIC:s=8a-)	!	!	!	!	!	!	!
8A-X\J	5	.	8aa-X\	8A-X\J	.	.	.	.	.	8a-X\	.	.	.	.	.	.	.
!	!	!	!	!	!	!	!	!	!	!LO:SIC:s=(4f	!	!	!	!	!	!LO:SIC:s=4.b-M	!
8B-\L	.	4.b-XM\	4dd\	8B-\L	.	.	4.B-M\	.	.	4f\	.	.	4.ddm\	.	.	4.b-\	4.ddm\
8F\	6	.	.	8F\	.	.	.	.	.	.	.	.	.	.	.	.	.
!	!	!	!	!	!	!	!	!	!	!LO:SIC:s=8g)	!	!	!	!	!	!	!
8G\J	5	.	8gg\	8G\J	.	.	.	.	.	8g\	.	.	.	.	.	.	.
=4	=4	=4	=4	=4	=4	=4	=4	=4	=4	=4	=4	=4	=4	=4	=4	=4	=4
!	!	!LO:SIC:s=4.a-M	!	!LO:SIC:v:s=8A-L	!	!	!	!	!	!LO:SIC:s=(4e-	!	!	!	!	!	!LO:SIC:s=4.a-M	!
8A-X\L	.	4.a-X/	4cc\	8A\L	.	.	4.A-XM\	.	.	4e-\	.	.	4.ccM\	.	.	4.a-X/	4.ccM\
8E-\	6	.	.	8E-\	.	.	.	.	.	.	.	.	.	.	.	.	.
!	!	!	!	!	!	!	!	!	!	!LO:SIC:s=8f)	!	!	!	!	!	!	!
8F\J	5	.	8ff\	8F\J	.	.	.	.	.	8f\	.	.	.	.	.	.	.
4G\	.	8dd\	8gg\	4.G\	-ley-	-lei-	8d\	.	.	8g\	-e-	.	(16dd\LL	-e-	.	8bn/	(16dd\LL
.	4	.	.	.	.	.	.	.	.	.	.	.	16ee-\JJ)	.	.	.	16ee-\JJ)
.	3	4bn\	4gg\	.	.	.	4d\	-ley-	-lei-	4g\	-lej-	-lei-	4bn\	-lej-	-lei-	4g/	4dd\
8GG/	.	.	.	.	.	.	.	.	.	.	.	.	.	.	.	.	.
=5	=5	=5	=5	=5	=5	=5	=5	=5	=5	=5	=5	=5	=5	=5	=5	=5	=5
!LO:TX:b:i:mod= :t=Solo Cant alt.	!	!	!	!	!	!	!	!	!	!	!	!	!	!	!	!	!
4.C/	.	4cc\	4gg\	4C/	-ſon	-ſon.	4c\	-son	-son.	4g\	-ſon	-ſon.	8cc,\	-ſon	-ſon.	4e-/	4cc\
.	.	.	.	.	.	.	.	.	.	.	.	.	8g/	Chris-	Chris-	.	.
.	.	8r	8r	8r	.	.	8r	.	.	8r	.	.	8cc\	-te	-te	8r	8r
!	!	!LO:N:vis=2	!LO:N:vis=2	!LO:N:vis=2	!	!	!LO:N:vis=2	!	!	!LO:N:vis=2	!	!	!	!	!	!LO:N:vis=2	!LO:N:vis=2
8GG/L	.	4.r	4.r	4.r	.	.	4.r	.	.	4.r	.	.	8bn\	chris-	Chris-	4.r	4.r
8AAn/	6	.	.	.	.	.	.	.	.	.	.	.	(8cc\L	-te	-te	.	.
8BBn/J	6	.	.	.	.	.	.	.	.	.	.	.	8dd\J)	.	.	.	.
!	!	!	!	!	!	!	!	!	!	!LO:LB:g=original	!	!	!LO:LB:g=original	!	!	!	!
=6	=6	=6	=6	=6	=6	=6	=6	=6	=6	=6	=6	=6	=6	=6	=6	=6	=6
!	!	!	!LO:TX:a:mod= :t=7	!	!	!	!	!	!	!	!	!	!	!	!	!	!
!	!	!LO:N:vis=00	!LO:N:vis=00	!LO:N:vis=00	!	!	!LO:N:vis=00	!	!	!LO:N:vis=2	!	!	!	!	!	!LO:N:vis=00	!LO:N:vis=00
8C/L	.	0.r	0.r	0.r	.	.	0.r	.	.	4.r	.	.	8ee-\	e-	e-	0.r	0.r
8BBn/	6	.	.	.	.	.	.	.	.	.	.	.	16dd\LL	-lej-	-lei-	.	.
.	7	.	.	.	.	.	.	.	.	.	.	.	16ee-\	.	.	.	.
8AA-X/J	6	.	.	.	.	.	.	.	.	.	.	.	16cc\	.	.	.	.
.	.	.	.	.	.	.	.	.	.	.	.	.	16dd\JJ	.	.	.	.
4GG/	.	.	.	.	.	.	.	.	.	8r	.	.	4bn\	-ſon	-ſon	.	.
.	.	.	.	.	.	.	.	.	.	8g\	Chris-	Chris-	.	.	.	.	.
8r	.	.	.	.	.	.	.	.	.	8g\	-te	-te	8r	.	.	.	.
=7	=7	=7	=7	=7	=7	=7	=7	=7	=7	=7	=7	=7	=7	=7	=7	=7	=7
*	*	*	*	*	*	*	*	*	*	*	*ij	*ij	*	*	*	*	*
8r	.	.	.	.	.	.	.	.	.	4a-X\	Chris-	Chris-	8r	.	.	.	.
8F\L	-	.	.	.	.	.	.	.	.	.	.	.	8ff\	chris-	Chris-	.	.
8D\J	6	.	.	.	.	.	.	.	.	8a-\	-te	-te	8ff\	-te	-te	.	.
*	*	*	*	*	*	*	*	*	*	*	*Xij	*Xij	*	*ij	*ij	*	*
4BB-/	5	.	.	.	.	.	.	.	.	8r	.	.	4dd\	chris-	Chris-	.	.
.	.	.	.	.	.	.	.	.	.	8f\	Chris-	Chris-	.	.	.	.	.
8BB-/	5	.	.	.	.	.	.	.	.	8f\	-te	-te	8dd\	-te	-te	.	.
=8	=8	=8	=8	=8	=8	=8	=8	=8	=8	=8	=8	=8	=8	=8	=8	=8	=8
*	*	*	*	*	*	*	*	*	*	*	*ij	*ij	*	*	*	*	*
8r	.	.	.	.	.	.	.	.	.	4g\	Chris-	Chris-	8r	.	.	.	.
8E-\L	.	.	.	.	.	.	.	.	.	.	.	.	8ee-\	chris-	Chris-	.	.
8C\J	.	.	.	.	.	.	.	.	.	8g\	-te	-te	8ee-\	-te	-te	.	.
4AA-X/	5	.	.	.	.	.	.	.	.	8r	.	.	4cc\	chris-	Chris-	.	.
.	.	.	.	.	.	.	.	.	.	8e-\	Chris-	Chris-	.	.	.	.	.
8AA-/	5	.	.	.	.	.	.	.	.	8e-\	-te	-te	8cc\	-te	-te	.	.
=9	=9	=9	=9	=9	=9	=9	=9	=9	=9	=9	=9	=9	=9	=9	=9	=9	=9
4BB-X/	5	.	.	.	.	.	.	.	.	4f\	Chris-	Chris-	8r	.	.	.	.
.	.	.	.	.	.	.	.	.	.	.	.	.	8dd\	chris-	Chris-	.	.
8BBn/	6	.	.	.	.	.	.	.	.	8g\	-te	-te	8dd\	-te	-te	.	.
*	*	*	*	*	*	*	*	*	*	*	*Xij	*Xij	*	*Xij	*Xij	*	*
!LO:TX:t=P:problem=mixed beam	!	!	!	!	!	!	!	!	!	!	!	!	!	!	!	!	!
8C\L	.	.	.	.	.	.	.	.	.	(16f\LL	e-	e-	(16cc\LL	e-	e-	.	.
!	!	!	!	!	!	!	!	!	!	!LO:SIC:s=16e-JJ)	!	!	!	!	!	!	!
.	.	.	.	.	.	.	.	.	.	16e-\JJ	.	.	16dd\JJ)	.	.	.	.
!	!	!	!	!	!	!	!	!	!	!LO:SIC:s=4d	!	!	!	!	!	!	!
8G\	.	.	.	.	.	.	.	.	.	4d\)	-lej-	-lei-	4bn\	-lej-	-lei-	.	.
8GG/J	.	.	.	.	.	.	.	.	.	.	.	.	.	.	.	.	.
!LO:PB:g=original	!	!	!	!	!	!	!	!	!	!	!	!	!	!	!	!	!
=10	=10	=10	=10	=10	=10	=10	=10	=10	=10	=10	=10	=10	=10	=10	=10	=10	=10
!	!	!LO:N:vis=0	!LO:N:vis=0	!LO:N:vis=0	!	!	!LO:N:vis=0	!	!	!	!	!	!	!	!	!	!
4C/	.	1.r	1.r	1.r	.	.	1.r	.	.	4c/	-ſon	-ſon.	4cc\	-ſon	-ſon.	8r	8r
!	!	!	!	!	!	!	!	!	!	!	!	!	!	!	!	!	!LO:TX:b:i:mod= :t=Solo
.	.	.	.	.	.	.	.	.	.	.	.	.	.	.	.	8ee-\L	8gg\L
8r	.	.	.	.	.	.	.	.	.	8r	.	.	8r	.	.	8ee-\J	8gg\J
!	!	!	!	!	!	!	!	!	!	!LO:N:vis=2	!	!	!LO:N:vis=2	!	!	!	!
8r	.	.	.	.	.	.	.	.	.	4.r	.	.	4.r	.	.	4ff\	4aa-X\
8F\L	-	.	.	.	.	.	.	.	.	.	.	.	.	.	.	.	.
8D\J	6	.	.	.	.	.	.	.	.	.	.	.	.	.	.	8ff\	8aa-\
!	!	!	!	!	!	!	!	!	!	!	!	!	!	!	!	!LO:LB:g=original	!
=11	=11	=11	=11	=11	=11	=11	=11	=11	=11	=11	=11	=11	=11	=11	=11	=11	=11
!	!	!	!	!	!	!	!	!	!	!LO:N:vis=0	!	!	!LO:N:vis=0	!	!	!	!
4BB-/	5	.	.	.	.	.	.	.	.	1.r	.	.	1.r	.	.	8r	8r
.	.	.	.	.	.	.	.	.	.	.	.	.	.	.	.	8dd\L	8ff\L
8BB-/	.	.	.	.	.	.	.	.	.	.	.	.	.	.	.	8dd\J	8ff\J
8r	.	.	.	.	.	.	.	.	.	.	.	.	.	.	.	4ee-\	4gg\
8E-\L	.	.	.	.	.	.	.	.	.	.	.	.	.	.	.	.	.
8C\J	.	.	.	.	.	.	.	.	.	.	.	.	.	.	.	8ee-\	8gg\
=12	=12	=12	=12	=12	=12	=12	=12	=12	=12	=12	=12	=12	=12	=12	=12	=12	=12
4AA-X/	5_	2.r	2.r	2.r	.	.	2.r	.	.	.	.	.	.	.	.	8r	8r
.	.	.	.	.	.	.	.	.	.	.	.	.	.	.	.	8cc\L	8ee-\L
8AA-/	.	.	.	.	.	.	.	.	.	.	.	.	.	.	.	8cc\J	8ee-\J
4BB-X/	5	.	.	.	.	.	.	.	.	.	.	.	.	.	.	4dd\	4ff\
8BBn/	6	.	.	.	.	.	.	.	.	.	.	.	.	.	.	8dd\	8gg\
=13	=13	=13	=13	=13	=13	=13	=13	=13	=13	=13	=13	=13	=13	=13	=13	=13	=13
!LO:TX:t=P:problem=mixed beam	!	!LO:N:vis=2	!	!LO:N:vis=2	!	!	!LO:N:vis=2	!	!	!LO:N:vis=2	!	!	!LO:N:vis=2	!	!	!	!
8C\L	.	4.r	4.r	4.r	.	.	4.r	.	.	4.r	.	.	4.r	.	.	8cc\	(16ff\LL
.	.	.	.	.	.	.	.	.	.	.	.	.	.	.	.	.	16ee-\JJ)
8G\	4	.	.	.	.	.	.	.	.	.	.	.	.	.	.	4g/	4dd\
!LO:TX:b:i:mod= :t=Tutti	!	!	!	!	!	!	!	!	!	!	!	!	!	!	!	!	!
8GG/J	3	.	.	.	.	.	.	.	.	.	.	.	.	.	.	.	.
!!LO:TX:a:t= :mod=Tutti
!	!	!LO:TX:t=P:problem=mixed beam	!	!	!	!	!	!	!	!	!	!	!	!	!	!	!
8.C/L	.	8e-/L	8cc\L	8.C/	Ky-	Ky-	8.e-\	Ky-	Ky-	8.g\	Kÿ-	Ky-	8.ee-\	Kÿ-	Ky-	4e-/	8cc\L
.	.	8ee-\	8.gg\	.	.	.	.	.	.	.	.	.	.	.	.	.	8ee-\
16D/L	.	.	.	16D/	-ri-	-ri-	16d\	-ri-	-ri-	16g\	-ri-	-ri-	16ee-\	-ri-	-ri-	.	.
16E-/	.	8cc\J	.	(16E-\LL	-e	-e	8c\	-e	-e	8g\	-e	-e	8ee-\	-e	-e	16g/LL	8cc\J
!	!	!	!LO:TX:t=P:problem=♭ above	!	!	!	!	!	!	!	!	!	!	!	!	!	!
16F/JJ	.	.	16aa-X\Jk	16F\JJ)	.	.	.	.	.	.	.	.	.	.	.	16a-X/JJ	.
!	!	!	!	!	!	!	!LO:LB:g=original	!	!	!	!	!	!	!	!	!	!
=14	=14	=14	=14	=14	=14	=14	=14	=14	=14	=14	=14	=14	=14	=14	=14	=14	=14
*	*	*	*	*	*ij	*ij	*	*ij	*ij	*	*ij	*ij	*	*ij	*ij	*	*
4G\	.	8bn\L	8.dd\L	8.G\	Ky-	Ky-	8.Bn\	Ky-	Ky-	8.g\	Kÿ-	Ky-	8.dd\	Kÿ-	Ky-	8bn\L	8dd\L
.	.	8b\	.	.	.	.	.	.	.	.	.	.	.	.	.	8dd\	8bn\
.	.	.	16dd\K	16G\	-ri-	-ri-	16B\	-ri-	-ri-	16d\	-ri-	-ri-	16dd\	-ri-	-ri-	.	.
8G\	.	8b\J	8dd\J	8G\	-e	-e	8B\	-e	-e	8d\	-e	-e	8dd\	-e	-e	8b\J	8dd\J
*	*	*	*	*	*Xij	*Xij	*	*Xij	*Xij	*	*Xij	*Xij	*	*Xij	*Xij	*	*
8c\L	6	8cc\	8ee-\	8c\	e-	e-	8c\	e-	e-	8e-\	e-	e-	8ee-\	e-	e-	8cc\	8ee-\
8B-\	6	4cc\	4ff\	(8B-\L	-ley-	-lei-	4c\	-ley-	-lei-	4f\	-lej-	-lei-	(8dd\L	-leÿ-	-lei-	4cc\	4ff\
.	7	.	.	.	.	.	.	.	.	.	.	.	.	.	.	.	.
8A-X\J	6	.	.	8A-X\J)	.	.	.	.	.	.	.	.	8cc\J)	.	.	.	.
!	!	!	!	!	!	!	!	!	!	!	!	!	!	!	!	!	!LO:LB:g=original
=15	=15	=15	=15	=15	=15	=15	=15	=15	=15	=15	=15	=15	=15	=15	=15	=15	=15
4G\	.	8bn\L	8gg\L	4G\	-ſon	-ſon	4d\	-ſon	-ſon	4g\	-ſon	-ſon	4bn\	-ſon	-ſon	8bn\L	8gg\L
.	.	8dd\	16gg\L	.	.	.	.	.	.	.	.	.	.	.	.	8dd\	16gg\L
!	!	!	!LO:TX:t=P:problem=♭ above	!	!	!	!	!	!	!	!	!	!	!	!	!	!LO:TX:t=P:problem=♭ above
.	.	.	16aa-X\	.	.	.	.	.	.	.	.	.	.	.	.	.	16aa-X\
8r	.	8dd\J	16gg\	8r	.	.	8r	.	.	8r	.	.	8r	.	.	8dd\J	16gg\
.	.	.	16ff\JJ	.	.	.	.	.	.	.	.	.	.	.	.	.	16ff\JJ
!	!	!LO:LB:g=original	!	!	!	!	!	!	!	!	!	!	!LO:LB:g=original	!	!	!	!
!	!	!LO:SIC:s=4.ccM	!	!	!	!	!	!	!	!	!	!	!LO:SIC:s=4.ee-M	!	!	!LO:SIC:s=4.ccM	!
8c\L	.	4.cc\	4ee-\	8c\L	e-	e-	4.cM\	e-	e-	(4g\	e-	e-	4.ee-\	e-	e-	4.cc\	4.ee-M\
8G\	6	.	.	8G\	.	.	.	.	.	.	.	.	.	.	.	.	.
!	!	!	!LO:TX:t=P:problem=♭ above	!	!	!	!	!	!	!	!	!	!	!	!	!	!
8A-X\J	5	.	8aa-\	8A-X\J	.	.	.	.	.	8a-X\)	.	.	.	.	.	.	.
!	!	!	!	!LO:LB:g=original	!	!	!	!	!	!LO:LB:g=original	!	!	!	!	!	!	!
=16	=16	=16	=16	=16	=16	=16	=16	=16	=16	=16	=16	=16	=16	=16	=16	=16	=16
!	!	!	!	!	!	!	!	!	!	!	!	!	!	!	!	!LO:SIC:s=4.b-M	!
!	!	!LO:SIC:s=4.b-M	!	!	!	!	!	!	!	!LO:SIC:s=(4f	!	!	!LO:SIC:s=4.ddm	!	!	!LO:TX:t=P:problem=♭ above	!
8B-\L	.	4.b-X/	4dd\	8B-\L	.	.	4.B-M\	.	.	4f\	.	.	4.dd\	.	.	4.b-X\	4.ddm\
8F\	6	.	.	8F\	.	.	.	.	.	.	.	.	.	.	.	.	.
!	!	!	!	!	!	!	!	!	!	!LO:SIC:s=8g)	!	!	!	!	!	!	!
8G\J	5	.	8gg\	8G\J	.	.	.	.	.	8g\	.	.	.	.	.	.	.
!	!	!LO:SIC:s=4.a-M	!	!	!	!	!	!	!	!LO:SIC:s=(4e-	!	!	!LO:SIC:s=4.ccM	!	!	!LO:SIC:s=4.a-M	!
8A-X\L	.	4.a-X/	4cc\	8A-X\L	.	.	4.A-XM\	.	.	4e-\	.	.	4.cc\	.	.	4.a-X/	4.ccM\
8E-\	6	.	.	8E-\	.	.	.	.	.	.	.	.	.	.	.	.	.
!	!	!	!	!	!	!	!	!	!	!LO:SIC:s=8f)	!	!	!	!	!	!	!
8F\J	5	.	8ff\	8F\J	.	.	.	.	.	8f\	.	.	.	.	.	.	.
!LO:LB:g=original	!	!	!	!	!	!	!	!	!	!	!	!	!	!	!	!	!
=17	=17	=17	=17	=17	=17	=17	=17	=17	=17	=17	=17	=17	=17	=17	=17	=17	=17
!	!	!	!	!	!	!	!	!	!	!	!	!	!LO:SIC:s=(16ddLL	!	!	!	!
4G\	.	8dd\	8gg\	4.G\	-ley-	-lei-	8d\	-e-	.	8g\	-e-	.	16dd\LL	.	.	8bn/	(16dd\LL
!	!	!	!	!	!	!	!	!	!	!	!	!	!LO:SIC:s=16ee-JJ)	!	!	!	!
.	4	.	.	.	.	.	.	.	.	.	.	.	16ee-\JJ	.	.	.	16ee-\JJ)
.	3	8bn\L	4gg\	.	.	.	4d\	-ley-	-lei-	4g\	-lej-	-lei-	4bn\	-eleÿ-	-lei-	4g/	4dd\
8GG/	.	8b\J	.	.	.	.	.	.	.	.	.	.	.	.	.	.	.
!	!	!	!LO:LB:g=original	!	!	!	!	!	!	!	!	!	!	!	!	!LO:TX:t=P:problem=mixed beam	!
8C/	.	8cc\L	8gg\L	4C/	-son	-son	4c\	-son	-son	4g\	-ſon	-ſon	4cc\	-ſon	-ſon	8e-/L	8cc\L
!	!	!LO:TX:t=P:problem=♮ above	!	!	!	!	!	!	!	!	!	!	!	!	!	!LO:TX:t=P:problem=♮ above	!
4G\	4	8bn\	8gg\	.	.	.	.	.	.	.	.	.	.	.	.	8bn\	8gg\
.	3	8b\J	8dd\J	8r	.	.	8r	.	.	8r	.	.	8r	.	.	8b\J	8dd\J
=18	=18	=18	=18	=18	=18	=18	=18	=18	=18	=18	=18	=18	=18	=18	=18	=18	=18
!	!	!LO:SIC:s=4.ccM	!	!	!	!	!LO:SIC:s=4.cM	!	!	!	!	!	!LO:SIC:s=4.ee-M	!	!	!LO:SIC:s=4.ccM	!
8c\L	.	4.cc\	4ee-\	8c\L	e-	e-	4.c\	e-	e-	(4g\	e-	e-	4.ee-\	e-	e-	4.cc\	4.ee-M\
8G\	6	.	.	8G\	.	.	.	.	.	.	.	.	.	.	.	.	.
!	!	!	!LO:SIC:v:s=8aa-	!	!	!	!	!	!	!	!	!	!	!	!	!	!
8A-X\J	5	.	8aa\	8A-X\J	.	.	.	.	.	8a-X\)	.	.	.	.	.	.	.
!	!	!LO:SIC:s=4.b-M	!	!	!	!	!	!	!	!	!	!	!	!	!	!	!
!	!	!LO:TX:t=P:problem=♭ above	!	!	!	!	!LO:SIC:s=4.B-M	!	!	!	!	!	!LO:SIC:s=4.ddm	!	!	!LO:SIC:s=4.b-M	!
8B-\L	.	4.b-X\	4dd\	8B-\L	.	.	4.B-\	.	.	(4f\	.	.	4.dd\	.	.	4.b-\	4.ddm\
8F\	6	.	.	8F\	.	.	.	.	.	.	.	.	.	.	.	.	.
8G\J	5	.	8gg\	8G\J	.	.	.	.	.	8g\)	.	.	.	.	.	.	.
=19	=19	=19	=19	=19	=19	=19	=19	=19	=19	=19	=19	=19	=19	=19	=19	=19	=19
!	!	!LO:SIC:s=4.a-M	!	!LO:SIC:v:s=8A-L	!	!	!LO:SIC:s=4.A-M	!	!	!	!	!	!LO:SIC:s=4.ccM	!	!	!LO:SIC:s=4.a-M	!
8A-X\L	.	4.a-X/	4cc\	8A\L	.	.	4.A-X\	.	.	(4e-\	.	.	4.cc\	.	.	4.a-X/	4.ccM\
8E-\	6	.	.	8E-\	.	.	.	.	.	.	.	.	.	.	.	.	.
8F\J	5	.	8ff\	8F\J	.	.	.	.	.	8f\)	.	.	.	.	.	.	.
4G\	.	8dd\	8gg\	4.G\	-ley-	-lei-	8d\	.	.	8g\	-e-	.	(16dd\LL	-e-	.	8bn/	(16dd\LL
.	4	.	.	.	.	.	.	.	.	.	.	.	16ee-\JJ)	.	.	.	16ee-\JJ)
.	3	4bn\	4gg\	.	.	.	4d\	-ley-	-lei-	4g\	-lej-	-lei-	4bn\	-leÿ-	-lei-	4g/	4dd\
8GG/	.	.	.	.	.	.	.	.	.	.	.	.	.	.	.	.	.
!	!	!	!	!	!	!	!	!	!	!	!	!	!	!	!	!LO:LB:g=original	!
=20	=20	=20	=20	=20	=20	=20	=20	=20	=20	=20	=20	=20	=20	=20	=20	=20	=20
4C/	.	4cc\	4gg\	4C/	-ſon	-ſon	4c\	-son	-son	4g\	-ſon	-ſon	4cc\	-ſon	-ſon	4e-/	4cc\
8r	.	8r	8r	8r	.	.	8r	.	.	8r	.	.	8r	.	.	8r	8r
!!LO:TX:a:t= :mod=Tarde
!	!	!	!	!	!	!	!	!	!	!	!	!	!	!	!	!	!LO:TX:b:i:mod= :t=Eleÿſon
!LO:TX:b:i:mod= :t=tarde	!	!LO:TX:b:i:mod= :t=tarde	!LO:TX:b:i:mod= :t=tarde	!LO:TX:a:i:mod= :t=tarde	!	!	!LO:TX:b:i:mod= :t=tarde	!	!	!LO:TX:b:i:mod= :t=tarde	!	!	!LO:TX:a:i:mod= :t=tarde	!	!	!	!LO:TX:a:i:mod= :t=tarde
8F\	-	8ff\	8aa-X\	8F\	e-	e-	8f\	e-	e-	8a-X\	e-	e-	8cc\	e-	e-	8a-X/	8cc\
4F\	4	4ff\	4aa-\	4F\	-ley-	-lei-	4f\	-ley-	-lei-	4a-\	-lej-	-lei-	4cc\	-leÿ-	-lei-	4a-/	4cc\
.	3	.	.	.	.	.	.	.	.	.	.	.	.	.	.	.	.
=21	=21	=21	=21	=21	=21	=21	=21	=21	=21	=21	=21	=21	=21	=21	=21	=21	=21
!	!	!	!	!	!	!	!	!	!	!LO:N:vis=1	!	!	!LO:N:vis=1.	!	!	!LO:SIC:s=2.g	!
2.C/	.	2.een\	2.gg\	2.C/	-son	-son.	2.en\	-son	-son.	2.g\	-ſon	-ſon.	2.cc\	-ſon	-ſon.	2.g;;/	2.cc\
==	==	==	==	==	==	==	==	==	==	==	==	==	==	==	==	==	==
*-	*-	*-	*-	*-	*-	*-	*-	*-	*-	*-	*-	*-	*-	*-	*-	*-	*-
!!!system-decoration: [(ww)][(vox)][(str)]<klav>
!!!filter-modern: shed -k -e "s/([#-])[X]/$1/g" |shed -e "s/TX(.*):t=P:/tx$1:t=P:/LG; s/LO:N:/LO:n:$1/L" | sic -sq | modori -m | autostem -r | tie -s | humtr -p
!!!ENC: Andrzej Borzym
!!!END: 2020-04-28
!!!EED: Leszek Kubiak
!!!EEV: 2020-12-01
!!!EED2: Andrzej Kubiczek
!!!EEV2: 2023-08-25
!!!ENC-modern: Andrzej Kubiczek
!!!END-modern: 2023-08-25
